static/img/kroki/0dcfc79637dd1fd974fbf19def85f81d.svg

<?xml version="1.0" encoding="us-ascii" standalone="no"?><svg xmlns="http://www.w3.org/2000/svg" xmlns:xlink="http://www.w3.org/1999/xlink" contentStyleType="text/css" height="252px" preserveAspectRatio="none" style="width:633px;height:252px;" version="1.1" viewBox="0 0 633 252" width="633px" zoomAndPan="magnify"><defs/><g><!--class azure_machine_learning_private_link--><g id="elem_azure_machine_learning_private_link"><rect codeLine="23" fill="#3D176E" height="39.7891" id="azure_machine_learning_private_link" rx="2.5" ry="2.5" style="stroke:#000D19;stroke-width:0.5;" width="355" x="145.5" y="106.79"/><ellipse cx="160.5" cy="126.6845" fill="#ADD1B2" rx="11" ry="11" style="stroke:#181818;stroke-width:1.0;"/><path d="M163.4688,132.3252 Q162.8906,132.622 162.25,132.7627 Q161.6094,132.9189 160.9063,132.9189 Q158.4063,132.9189 157.0781,131.2783 Q155.7656,129.622 155.7656,126.497 Q155.7656,123.372 157.0781,121.7158 Q158.4063,120.0595 160.9063,120.0595 Q161.6094,120.0595 162.25,120.2158 Q162.9063,120.372 163.4688,120.6689 L163.4688,123.3877 Q162.8438,122.8095 162.25,122.5439 Q161.6563,122.2627 161.0313,122.2627 Q159.6875,122.2627 159,123.3408 Q158.3125,124.4033 158.3125,126.497 Q158.3125,128.5908 159,129.6689 Q159.6875,130.7314 161.0313,130.7314 Q161.6563,130.7314 162.25,130.4658 Q162.8438,130.1845 163.4688,129.6064 L163.4688,132.3252 Z " fill="#000000"/><text fill="#D9B8FF" font-family="Helvetica" font-size="17" lengthAdjust="spacing" textLength="313" x="179.5" y="132.5698">azure_machine_learning_private_link</text></g><!--class azure_machine_learning_workspace--><g id="elem_azure_machine_learning_workspace"><rect codeLine="26" fill="#3D176E" height="39.7891" id="azure_machine_learning_workspace" rx="2.5" ry="2.5" style="stroke:#000D19;stroke-width:0.5;" width="344" x="151" y="7"/><ellipse cx="166" cy="26.8945" fill="#ADD1B2" rx="11" ry="11" style="stroke:#181818;stroke-width:1.0;"/><path d="M168.9688,32.5352 Q168.3906,32.832 167.75,32.9727 Q167.1094,33.1289 166.4063,33.1289 Q163.9063,33.1289 162.5781,31.4883 Q161.2656,29.832 161.2656,26.707 Q161.2656,23.582 162.5781,21.9258 Q163.9063,20.2695 166.4063,20.2695 Q167.1094,20.2695 167.75,20.4258 Q168.4063,20.582 168.9688,20.8789 L168.9688,23.5977 Q168.3438,23.0195 167.75,22.7539 Q167.1563,22.4727 166.5313,22.4727 Q165.1875,22.4727 164.5,23.5508 Q163.8125,24.6133 163.8125,26.707 Q163.8125,28.8008 164.5,29.8789 Q165.1875,30.9414 166.5313,30.9414 Q167.1563,30.9414 167.75,30.6758 Q168.3438,30.3945 168.9688,29.8164 L168.9688,32.5352 Z " fill="#000000"/><text fill="#D9B8FF" font-family="Helvetica" font-size="17" lengthAdjust="spacing" textLength="302" x="185" y="32.7798">azure_machine_learning_workspace</text></g><!--class microsoft_graph_service_principal--><g id="elem_microsoft_graph_service_principal"><rect codeLine="29" fill="#3D176E" height="39.7891" id="microsoft_graph_service_principal" rx="2.5" ry="2.5" style="stroke:#000D19;stroke-width:0.5;" width="324" x="7" y="206.58"/><ellipse cx="22" cy="226.4745" fill="#ADD1B2" rx="11" ry="11" style="stroke:#181818;stroke-width:1.0;"/><path d="M24.9688,232.1152 Q24.3906,232.412 23.75,232.5527 Q23.1094,232.7089 22.4063,232.7089 Q19.9063,232.7089 18.5781,231.0683 Q17.2656,229.412 17.2656,226.287 Q17.2656,223.162 18.5781,221.5058 Q19.9063,219.8495 22.4063,219.8495 Q23.1094,219.8495 23.75,220.0058 Q24.4063,220.162 24.9688,220.4589 L24.9688,223.1777 Q24.3438,222.5995 23.75,222.3339 Q23.1563,222.0527 22.5313,222.0527 Q21.1875,222.0527 20.5,223.1308 Q19.8125,224.1933 19.8125,226.287 Q19.8125,228.3808 20.5,229.4589 Q21.1875,230.5214 22.5313,230.5214 Q23.1563,230.5214 23.75,230.2558 Q24.3438,229.9745 24.9688,229.3964 L24.9688,232.1152 Z " fill="#000000"/><text fill="#D9B8FF" font-family="Helvetica" font-size="17" lengthAdjust="spacing" textLength="282" x="41" y="232.3598">microsoft_graph_service_principal</text></g><!--class microsoft_graph_user--><g id="elem_microsoft_graph_user"><rect codeLine="32" fill="#3D176E" height="39.7891" id="microsoft_graph_user" rx="2.5" ry="2.5" style="stroke:#000D19;stroke-width:0.5;" width="222" x="404" y="206.58"/><ellipse cx="419" cy="226.4745" fill="#ADD1B2" rx="11" ry="11" style="stroke:#181818;stroke-width:1.0;"/><path d="M421.9688,232.1152 Q421.3906,232.412 420.75,232.5527 Q420.1094,232.7089 419.4063,232.7089 Q416.9063,232.7089 415.5781,231.0683 Q414.2656,229.412 414.2656,226.287 Q414.2656,223.162 415.5781,221.5058 Q416.9063,219.8495 419.4063,219.8495 Q420.1094,219.8495 420.75,220.0058 Q421.4063,220.162 421.9688,220.4589 L421.9688,223.1777 Q421.3438,222.5995 420.75,222.3339 Q420.1563,222.0527 419.5313,222.0527 Q418.1875,222.0527 417.5,223.1308 Q416.8125,224.1933 416.8125,226.287 Q416.8125,228.3808 417.5,229.4589 Q418.1875,230.5214 419.5313,230.5214 Q420.1563,230.5214 420.75,230.2558 Q421.3438,229.9745 421.9688,229.3964 L421.9688,232.1152 Z " fill="#000000"/><text fill="#D9B8FF" font-family="Helvetica" font-size="17" lengthAdjust="spacing" textLength="180" x="438" y="232.3598">microsoft_graph_user</text></g><!--link azure_machine_learning_private_link to microsoft_graph_service_principal--><g id="link_azure_machine_learning_private_link_microsoft_graph_service_principal"><path codeLine="35" d="M292.57,147.01 C265.58,164.15 231.4044,185.8426 204.4244,202.9826 " fill="none" id="azure_machine_learning_private_link-to-microsoft_graph_service_principal" style="stroke:#1A83AF;stroke-width:2.0;"/><polygon fill="#1A83AF" points="199.36,206.2,209.1016,204.7502,203.5804,203.5189,204.8118,197.9977,199.36,206.2" style="stroke:#1A83AF;stroke-width:2.0;"/></g><!--link azure_machine_learning_private_link to microsoft_graph_user--><g id="link_azure_machine_learning_private_link_microsoft_graph_user"><path codeLine="36" d="M360.93,147.01 C394.59,164.15 438.1639,186.3361 471.8039,203.4761 " fill="none" id="azure_machine_learning_private_link-to-microsoft_graph_user" style="stroke:#1A83AF;stroke-width:2.0;"/><polygon fill="#1A83AF" points="477.15,206.2,470.9468,198.5501,472.6949,203.9301,467.315,205.6782,477.15,206.2" style="stroke:#1A83AF;stroke-width:2.0;"/></g><!--link azure_machine_learning_workspace to azure_machine_learning_private_link--><g id="link_azure_machine_learning_workspace_azure_machine_learning_private_link"><path codeLine="37" d="M323,47.22 C323,64.36 323,83.27 323,100.41 " fill="none" id="azure_machine_learning_workspace-to-azure_machine_learning_private_link" style="stroke:#1A83AF;stroke-width:2.0;"/><polygon fill="#1A83AF" points="323,106.41,327,97.41,323,101.41,319,97.41,323,106.41" style="stroke:#1A83AF;stroke-width:2.0;"/></g><!--link azure_machine_learning_workspace to microsoft_graph_service_principal--><g id="link_azure_machine_learning_workspace_microsoft_graph_service_principal"><path codeLine="38" d="M214.2,47.22 C180.93,58.79 147.9,77.27 128,106.79 C106.8,138.24 129.6752,177.0348 148.8652,201.6948 " fill="none" id="azure_machine_learning_workspace-to-microsoft_graph_service_principal" style="stroke:#1A83AF;stroke-width:2.0;"/><polygon fill="#1A83AF" points="152.55,206.43,150.1795,196.8707,149.4793,202.484,143.866,201.7838,152.55,206.43" style="stroke:#1A83AF;stroke-width:2.0;"/></g><!--link azure_machine_learning_workspace to microsoft_graph_user--><g id="link_azure_machine_learning_workspace_microsoft_graph_user"><path codeLine="39" d="M431.8,47.22 C465.07,58.79 498.1,77.27 518,106.79 C538.16,136.7 531.0935,175.4359 523.5035,200.5859 " fill="none" id="azure_machine_learning_workspace-to-microsoft_graph_user" style="stroke:#1A83AF;stroke-width:2.0;"/><polygon fill="#1A83AF" points="521.77,206.33,528.1997,198.8695,523.2146,201.5432,520.5409,196.5581,521.77,206.33" style="stroke:#1A83AF;stroke-width:2.0;"/></g><!--SRC=[fP9TJy8m58RlzokQS4t290hSc209qHjYn3jZbaDxoffjxNBQGS3utzr0JTbaGxtj- -JzE6ci13BCShTZ6MOh91lOHEaS238s9JBRcKaDiPwK88UZkZWtsdK22yYGtMEwGQSur8ddMF54exNiofFkW2ThCeKMHtj7e6qfeNOUDKl1sgbpf5Q5Gw-CcAp6KjR9kcblACBH3JOmGmBf4naC1YASr97EgDRTtyHIxP65_j4Mnc6ZPYFYGBMsh0YlP6FebtwsuoC8eVIQNNjlJyTEf95EtfSn2BEjQ0cfzMEiGqBZTZdE6gjmCXPoz2FyS0uEU7Kw1lk2CCg0nqfZb2AGBjEZdDG6NFcWTCBUWk2z7TyQIie_nT5dCyN9M2DTj2R8uyWYRHJ7objpbKFQ1XSbVTGlQTX_wONJyN0wV-tVTkV-tx9g5tJUuiJYWinVElvvvuL-Xv4V]--></g></svg>

<svg xmlns="http://www.w3.org/2000/svg" width="633" height="252" viewBox="0 0 633 252"><rect width="355" height="39.789" x="145.5" y="106.79" fill="#3D176E" rx="2.5" ry="2.5" style="stroke:#000d19;stroke-width:.5"/><circle cx="160.5" cy="126.684" r="11" fill="#ADD1B2" style="stroke:#181818;stroke-width:1"/><path d="M163.469 132.325q-.578.297-1.219.438-.64.156-1.344.156-2.5 0-3.828-1.64-1.312-1.657-1.312-4.782t1.312-4.781q1.328-1.656 3.828-1.656.703 0 1.344.156.656.156 1.219.453v2.719q-.625-.579-1.219-.844-.594-.281-1.219-.281-1.344 0-2.031 1.078-.687 1.062-.687 3.156t.687 3.172q.688 1.062 2.031 1.062.625 0 1.219-.265.594-.281 1.219-.86z"/><text x="179.5" y="132.57" fill="#D9B8FF" font-family="Helvetica" font-size="17" textLength="313">azure_machine_learning_private_link</text><rect width="344" height="39.789" x="151" y="7" fill="#3D176E" rx="2.5" ry="2.5" style="stroke:#000d19;stroke-width:.5"/><circle cx="166" cy="26.895" r="11" fill="#ADD1B2" style="stroke:#181818;stroke-width:1"/><path d="M168.969 32.535q-.578.297-1.219.438-.64.156-1.344.156-2.5 0-3.828-1.64-1.312-1.657-1.312-4.782t1.312-4.781q1.328-1.656 3.828-1.656.703 0 1.344.156.656.156 1.219.453v2.719q-.625-.578-1.219-.844-.594-.281-1.219-.281-1.344 0-2.031 1.078-.687 1.062-.687 3.156t.687 3.172q.688 1.062 2.031 1.062.625 0 1.219-.265.594-.281 1.219-.86z"/><text x="185" y="32.78" fill="#D9B8FF" font-family="Helvetica" font-size="17" textLength="302">azure_machine_learning_workspace</text><rect width="324" height="39.789" x="7" y="206.58" fill="#3D176E" rx="2.5" ry="2.5" style="stroke:#000d19;stroke-width:.5"/><circle cx="22" cy="226.475" r="11" fill="#ADD1B2" style="stroke:#181818;stroke-width:1"/><path d="M24.969 232.115q-.578.297-1.219.438-.64.156-1.344.156-2.5 0-3.828-1.64-1.312-1.657-1.312-4.782t1.312-4.781q1.328-1.656 3.828-1.656.703 0 1.344.156.656.156 1.219.453v2.719q-.625-.578-1.219-.844-.594-.281-1.219-.281-1.343 0-2.031 1.078-.687 1.062-.687 3.156t.687 3.172q.688 1.062 2.031 1.062.625 0 1.219-.265.594-.281 1.219-.86z"/><text x="41" y="232.36" fill="#D9B8FF" font-family="Helvetica" font-size="17" textLength="282">microsoft_graph_service_principal</text><rect width="222" height="39.789" x="404" y="206.58" fill="#3D176E" rx="2.5" ry="2.5" style="stroke:#000d19;stroke-width:.5"/><circle cx="419" cy="226.475" r="11" fill="#ADD1B2" style="stroke:#181818;stroke-width:1"/><path d="M421.969 232.115q-.578.297-1.219.438-.64.156-1.344.156-2.5 0-3.828-1.64-1.312-1.657-1.312-4.782t1.312-4.781q1.328-1.656 3.828-1.656.703 0 1.344.156.656.156 1.219.453v2.719q-.625-.578-1.219-.844-.594-.281-1.219-.281-1.344 0-2.031 1.078-.687 1.062-.687 3.156t.687 3.172q.688 1.062 2.031 1.062.625 0 1.219-.265.594-.281 1.219-.86z"/><text x="438" y="232.36" fill="#D9B8FF" font-family="Helvetica" font-size="17" textLength="180">microsoft_graph_user</text><path fill="none" d="M292.57 147.01c-26.99 17.14-61.166 38.833-88.146 55.973" style="stroke:#1a83af;stroke-width:2"/><path fill="#1A83AF" d="m199.36 206.2 9.742-1.45-5.522-1.231 1.232-5.521z" style="stroke:#1a83af;stroke-width:2"/><path fill="none" d="M360.93 147.01c33.66 17.14 77.234 39.326 110.874 56.466" style="stroke:#1a83af;stroke-width:2"/><path fill="#1A83AF" d="m477.15 206.2-6.203-7.65 1.748 5.38-5.38 1.748z" style="stroke:#1a83af;stroke-width:2"/><path fill="none" d="M323 47.22v53.19" style="stroke:#1a83af;stroke-width:2"/><path fill="#1A83AF" d="m323 106.41 4-9-4 4-4-4z" style="stroke:#1a83af;stroke-width:2"/><path fill="none" d="M214.2 47.22c-33.27 11.57-66.3 30.05-86.2 59.57-21.2 31.45 1.675 70.245 20.865 94.905" style="stroke:#1a83af;stroke-width:2"/><path fill="#1A83AF" d="m152.55 206.43-2.37-9.56-.7 5.614-5.614-.7z" style="stroke:#1a83af;stroke-width:2"/><path fill="none" d="M431.8 47.22c33.27 11.57 66.3 30.05 86.2 59.57 20.16 29.91 13.093 68.646 5.504 93.796" style="stroke:#1a83af;stroke-width:2"/><path fill="#1A83AF" d="m521.77 206.33 6.43-7.46-4.985 2.673-2.674-4.985z" style="stroke:#1a83af;stroke-width:2"/></svg>
